X:2
T:Lamey's
T:Clan Ranald
T:Clanranald
R:reel
M:4/4
L:1/8
K:Edor
|:E2 BE GB2c|dDAD FADF|E2 BE GB2c|1dAFA GEED:|2dAFA GEEf||
|:geBA GBEe|fdAG FADf|geBA GBEc|dEcE BEEf|
geBA GBEe|fdAG FADf|gbfg efde|BdAd BEFD||
